Newaita-dark/apps/16/kmines.svg

<?xml version="1.0" encoding="UTF-8"?>
<svg xmlns="http://www.w3.org/2000/svg" xmlns:xlink="http://www.w3.org/1999/xlink" width="16pt" height="16pt" viewBox="0 0 16 16" version="1.1">
<defs>
<radialGradient id="radial0" gradientUnits="userSpaceOnUse" cx="450.908936" cy="189.579361" fx="450.908936" fy="189.579361" r="21.166656" gradientTransform="matrix(0.0000000870852,-0.0390662,-0.0703192,-0.0000000507693,21.103913,31.797666)">
<stop offset="0" style="stop-color:rgb(0%,0%,0%);stop-opacity:0.313725;"/>
<stop offset="0.222222" style="stop-color:rgb(0%,0%,0%);stop-opacity:0.27451;"/>
<stop offset="1" style="stop-color:rgb(0%,0%,0%);stop-opacity:0;"/>
</radialGradient>
<radialGradient id="radial1" gradientUnits="userSpaceOnUse" cx="450.908936" cy="189.579361" fx="450.908936" fy="189.579361" r="21.166656" gradientTransform="matrix(-0.0000000870852,0.0390662,0.0703192,0.0000000507693,-5.227395,-3.763739)">
<stop offset="0" style="stop-color:rgb(0%,0%,0%);stop-opacity:0.313725;"/>
<stop offset="0.222222" style="stop-color:rgb(0%,0%,0%);stop-opacity:0.27451;"/>
<stop offset="1" style="stop-color:rgb(0%,0%,0%);stop-opacity:0;"/>
</radialGradient>
<radialGradient id="radial2" gradientUnits="userSpaceOnUse" cx="450.908936" cy="189.579361" fx="450.908936" fy="189.579361" r="21.166656" gradientTransform="matrix(-0.0000000870852,-0.0390662,0.0703192,-0.0000000507693,-5.227395,31.797666)">
<stop offset="0" style="stop-color:rgb(0%,0%,0%);stop-opacity:0.313725;"/>
<stop offset="0.222222" style="stop-color:rgb(0%,0%,0%);stop-opacity:0.27451;"/>
<stop offset="1" style="stop-color:rgb(0%,0%,0%);stop-opacity:0;"/>
</radialGradient>
<radialGradient id="radial3" gradientUnits="userSpaceOnUse" cx="450.908936" cy="189.579361" fx="450.908936" fy="189.579361" r="21.166656" gradientTransform="matrix(0.0000000870852,0.0390662,-0.0703192,0.0000000507693,21.103912,-3.76374)">
<stop offset="0" style="stop-color:rgb(0%,0%,0%);stop-opacity:0.313725;"/>
<stop offset="0.222222" style="stop-color:rgb(0%,0%,0%);stop-opacity:0.27451;"/>
<stop offset="1" style="stop-color:rgb(0%,0%,0%);stop-opacity:0;"/>
</radialGradient>
<linearGradient id="linear0" gradientUnits="userSpaceOnUse" x1="960" y1="1695.118164" x2="960" y2="175.118134" >
<stop offset="0" style="stop-color:rgb(25.882353%,25.882353%,25.882353%);stop-opacity:1;"/>
<stop offset="1" style="stop-color:rgb(38.039216%,38.039216%,38.039216%);stop-opacity:1;"/>
</linearGradient>
<linearGradient id="linear1" gradientUnits="userSpaceOnUse" x1="254" y1="191.166672" x2="254" y2="-126.333344" gradientTransform="matrix(0.031253,0,0,0.031253,0,6.719392)">
<stop offset="0" style="stop-color:rgb(38.039216%,38.039216%,38.039216%);stop-opacity:1;"/>
<stop offset="1" style="stop-color:rgb(45.882353%,45.882353%,45.882353%);stop-opacity:1;"/>
</linearGradient>
<linearGradient id="linear2" gradientUnits="userSpaceOnUse" x1="254" y1="53.583332" x2="254" y2="11.25" >
<stop offset="0" style="stop-color:rgb(25.882353%,25.882353%,25.882353%);stop-opacity:1;"/>
<stop offset="1" style="stop-color:rgb(38.039216%,38.039216%,38.039216%);stop-opacity:1;"/>
</linearGradient>
</defs>
<g id="surface1">
<path style=" stroke:none;fill-rule:nonzero;fill:url(#radial0);" d="M 7.9375 14.015625 L 9.261719 14.015625 L 9.261719 13.355469 L 7.9375 13.355469 Z M 7.9375 14.015625 "/>
<path style=" stroke:none;fill-rule:nonzero;fill:url(#radial1);" d="M 7.9375 14.015625 L 6.613281 14.015625 L 6.613281 14.679688 L 7.9375 14.679688 Z M 7.9375 14.015625 "/>
<path style=" stroke:none;fill-rule:nonzero;fill:url(#radial2);" d="M 7.9375 14.015625 L 6.613281 14.015625 L 6.613281 13.355469 L 7.9375 13.355469 Z M 7.9375 14.015625 "/>
<path style=" stroke:none;fill-rule:nonzero;fill:url(#radial3);" d="M 7.9375 14.015625 L 9.261719 14.015625 L 9.261719 14.679688 L 7.9375 14.679688 Z M 7.9375 14.015625 "/>
<path style="fill-rule:nonzero;fill:url(#linear0);stroke-width:11.338583;stroke-linecap:round;stroke-linejoin:miter;stroke:rgb(12.941177%,12.941177%,12.941177%);stroke-opacity:1;stroke-miterlimit:4;" d="M 959.908384 175.258863 C 915.503173 175.258863 880.073484 210.688553 880.073484 255.093763 L 880.073484 742.133893 L 535.696903 397.757313 C 504.518777 366.579186 453.97242 366.579186 422.794293 397.757313 C 391.143771 428.935439 391.143771 479.481796 422.794293 510.659923 L 766.698478 855.036503 L 280.130744 855.036503 C 235.725533 855.036503 199.823448 890.938588 199.823448 935.343799 C 199.823448 979.276614 235.725533 1015.178699 280.130744 1015.178699 L 766.698478 1015.178699 L 422.794293 1359.55528 C 391.143771 1390.733406 391.143771 1441.279763 422.794293 1472.45789 C 453.97242 1503.636017 504.518777 1503.636017 535.696903 1472.45789 L 880.073484 1128.081309 L 880.073484 1615.121439 C 880.073484 1659.52665 915.503173 1694.956339 959.908384 1694.956339 C 1004.313594 1694.956339 1040.21568 1659.52665 1040.21568 1615.121439 L 1040.21568 1128.081309 L 1384.119864 1472.45789 C 1415.770387 1503.636017 1465.844348 1503.636017 1497.49487 1472.45789 C 1528.672997 1441.279763 1528.672997 1390.733406 1497.49487 1359.55528 L 1153.11829 1015.178699 L 1640.15842 1015.178699 C 1684.091234 1015.178699 1719.99332 979.276614 1719.99332 935.343799 C 1719.99332 890.938588 1684.091234 855.036503 1640.15842 855.036503 L 1153.11829 855.036503 L 1497.49487 510.659923 C 1528.672997 479.481796 1528.672997 428.935439 1497.49487 397.757313 C 1465.844348 366.579186 1415.770387 366.579186 1384.119864 397.757313 L 1040.21568 742.133893 L 1040.21568 255.093763 C 1040.21568 210.688553 1004.313594 175.258863 959.908384 175.258863 Z M 959.908384 175.258863 " transform="matrix(0.00826902,0,0,0.00826902,0,0)"/>
<path style=" stroke:none;fill-rule:nonzero;fill:url(#linear1);" d="M 7.9375 2.769531 C 10.679688 2.769531 12.898438 4.992188 12.898438 7.734375 C 12.898438 10.472656 10.679688 12.695312 7.9375 12.695312 C 5.199219 12.695312 2.976562 10.472656 2.976562 7.734375 C 2.976562 4.992188 5.199219 2.769531 7.9375 2.769531 Z M 7.9375 2.769531 "/>
<path style="fill-rule:nonzero;fill:url(#linear2);stroke-width:3;stroke-linecap:round;stroke-linejoin:miter;stroke:rgb(12.941177%,12.941177%,12.941177%);stroke-opacity:1;stroke-miterlimit:4;" d="M 253.975747 11.228396 C 265.724625 11.228396 275.223717 20.727489 275.223717 32.476367 C 275.223717 44.100257 265.724625 53.59935 253.975747 53.59935 C 242.351857 53.59935 232.852764 44.100257 232.852764 32.476367 C 232.852764 20.727489 242.351857 11.228396 253.975747 11.228396 Z M 253.975747 11.228396 " transform="matrix(0.031253,0,0,0.031253,0,6.719392)"/>
<path style=" stroke:none;fill-rule:nonzero;fill:rgb(100%,100%,100%);fill-opacity:0.392157;" d="M 7.9375 2.769531 C 5.191406 2.769531 2.976562 4.984375 2.976562 7.734375 C 2.976562 7.761719 2.976562 7.789062 2.976562 7.816406 C 3.019531 5.105469 5.21875 2.9375 7.9375 2.9375 C 10.660156 2.9375 12.855469 5.105469 12.898438 7.816406 C 12.898438 7.789062 12.898438 7.761719 12.898438 7.734375 C 12.898438 4.984375 10.6875 2.769531 7.9375 2.769531 Z M 7.9375 2.769531 "/>
<path style=" stroke:none;fill-rule:nonzero;fill:rgb(0%,0%,0%);fill-opacity:0.235294;" d="M 7.9375 12.695312 C 5.191406 12.695312 2.976562 10.480469 2.976562 7.734375 C 2.976562 7.703125 2.976562 7.675781 2.976562 7.648438 C 3.019531 10.359375 5.21875 12.527344 7.9375 12.527344 C 10.660156 12.527344 12.855469 10.359375 12.898438 7.648438 C 12.898438 7.675781 12.898438 7.703125 12.898438 7.734375 C 12.898438 10.480469 10.6875 12.695312 7.9375 12.695312 Z M 7.9375 12.695312 "/>
<path style="fill:none;stroke-width:2.904737;stroke-linecap:round;stroke-linejoin:miter;stroke:rgb(12.941177%,12.941177%,12.941177%);stroke-opacity:1;stroke-miterlimit:4;" d="M 253.975747 -126.383462 C 341.717368 -126.383462 412.710588 -55.265254 412.710588 32.476367 C 412.710588 120.093 341.717368 191.211209 253.975747 191.211209 C 166.359113 191.211209 95.240905 120.093 95.240905 32.476367 C 95.240905 -55.265254 166.359113 -126.383462 253.975747 -126.383462 Z M 253.975747 -126.383462 " transform="matrix(0.031253,0,0,0.031253,0,6.719392)"/>
</g>
</svg>

<svg xmlns="http://www.w3.org/2000/svg" width="16pt" height="16pt" viewBox="0 0 16 16"><defs><radialGradient id="a" gradientUnits="userSpaceOnUse" cx="450.909" cy="189.579" fx="450.909" fy="189.579" r="21.167" gradientTransform="matrix(0 -.03907 -.07032 0 21.104 31.798)"><stop offset="0" stop-opacity=".314"/><stop offset=".222" stop-opacity=".275"/><stop offset="1" stop-opacity="0"/></radialGradient><radialGradient id="b" gradientUnits="userSpaceOnUse" cx="450.909" cy="189.579" fx="450.909" fy="189.579" r="21.167" gradientTransform="matrix(0 .03907 .07032 0 -5.227 -3.764)"><stop offset="0" stop-opacity=".314"/><stop offset=".222" stop-opacity=".275"/><stop offset="1" stop-opacity="0"/></radialGradient><radialGradient id="c" gradientUnits="userSpaceOnUse" cx="450.909" cy="189.579" fx="450.909" fy="189.579" r="21.167" gradientTransform="matrix(0 -.03907 .07032 0 -5.227 31.798)"><stop offset="0" stop-opacity=".314"/><stop offset=".222" stop-opacity=".275"/><stop offset="1" stop-opacity="0"/></radialGradient><radialGradient id="d" gradientUnits="userSpaceOnUse" cx="450.909" cy="189.579" fx="450.909" fy="189.579" r="21.167" gradientTransform="matrix(0 .03907 -.07032 0 21.104 -3.764)"><stop offset="0" stop-opacity=".314"/><stop offset=".222" stop-opacity=".275"/><stop offset="1" stop-opacity="0"/></radialGradient><linearGradient id="e" gradientUnits="userSpaceOnUse" x1="960" y1="1695.118" x2="960" y2="175.118"><stop offset="0" stop-color="#424242"/><stop offset="1" stop-color="#616161"/></linearGradient><linearGradient id="f" gradientUnits="userSpaceOnUse" x1="254" y1="191.167" x2="254" y2="-126.333" gradientTransform="matrix(.03125 0 0 .03125 0 6.72)"><stop offset="0" stop-color="#616161"/><stop offset="1" stop-color="#757575"/></linearGradient><linearGradient id="g" gradientUnits="userSpaceOnUse" x1="254" y1="53.583" x2="254" y2="11.25"><stop offset="0" stop-color="#424242"/><stop offset="1" stop-color="#616161"/></linearGradient></defs><path d="M7.938 14.016h1.324v-.66H7.937zm0 0" fill="url(#a)"/><path d="M7.938 14.016H6.612v.664h1.324zm0 0" fill="url(#b)"/><path d="M7.938 14.016H6.612v-.66h1.324zm0 0" fill="url(#c)"/><path d="M7.938 14.016h1.324v.664H7.937zm0 0" fill="url(#d)"/><path d="M959.908 175.259c-44.405 0-79.835 35.43-79.835 79.835v487.04L535.697 397.757c-31.178-31.178-81.725-31.178-112.903 0a78.993 78.993 0 0 0 0 112.903l343.904 344.377H280.131c-44.405 0-80.308 35.902-80.308 80.307 0 43.933 35.903 79.835 80.308 79.835h486.567l-343.904 344.376a78.993 78.993 0 0 0 0 112.903c31.178 31.178 81.725 31.178 112.903 0l344.376-344.377v487.04c0 44.406 35.43 79.835 79.835 79.835 44.406 0 80.308-35.43 80.308-79.835v-487.04l343.904 344.377c31.65 31.178 81.724 31.178 113.375 0 31.178-31.178 31.178-81.725 0-112.903l-344.377-344.376h487.04c43.933 0 79.835-35.902 79.835-79.835 0-44.405-35.902-80.307-79.835-80.307h-487.04l344.377-344.377c31.178-31.178 31.178-81.725 0-112.903-31.65-31.178-81.725-31.178-113.375 0l-343.904 344.377v-487.04c0-44.405-35.902-79.835-80.308-79.835zm0 0" transform="rotate(.882) scale(.00827)" fill="url(#e)" stroke-width="11.339" stroke-linecap="round" stroke="#212121"/><path d="M7.938 2.77a4.961 4.961 0 0 1 4.96 4.964 4.96 4.96 0 1 1-9.921 0 4.964 4.964 0 0 1 4.96-4.964zm0 0" fill="url(#f)"/><path d="M253.976 11.228c11.749 0 21.248 9.5 21.248 21.248 0 11.624-9.5 21.123-21.248 21.123-11.624 0-21.123-9.499-21.123-21.123 0-11.749 9.499-21.248 21.123-21.248zm0 0" transform="matrix(.03125 0 0 .03125 0 6.72)" fill="url(#g)" stroke-width="3" stroke-linecap="round" stroke="#212121"/><path d="M7.938 2.77a4.954 4.954 0 0 0-4.961 5.046 4.951 4.951 0 0 1 4.96-4.878 4.948 4.948 0 0 1 4.961 4.878v-.082c0-2.75-2.21-4.964-4.96-4.964zm0 0" fill="#fff" fill-opacity=".392"/><path d="M7.938 12.695a4.953 4.953 0 0 1-4.961-4.96v-.087a4.951 4.951 0 0 0 4.96 4.88 4.948 4.948 0 0 0 4.961-4.88v.086a4.95 4.95 0 0 1-4.96 4.961zm0 0" fill-opacity=".235"/><path d="M7.938 2.77a4.961 4.961 0 0 1 4.96 4.964 4.96 4.96 0 1 1-9.921 0 4.964 4.964 0 0 1 4.96-4.964zm0 0" fill="none" stroke-width=".09078125" stroke-linecap="round" stroke="#212121"/></svg>
